X:10056
T:Maeve's Reel
R:Reel
S:Noel Hill
H:
N:
D:
Z:Adrian Scahill
M:4/4
L:1/8
K:G
dged dBAc|B2AG GEDB,|G,2B,D GBdg|eaag edBd|\
g3a bgag|gedB AGEG|DEGB dgfg|ecAF G4:||\
dggf g3a|bgag edBG|DEGA B3c|dgg2 edBd|\
g3a bgaf|gedB AGEG|DEGB dgfg|ecAF G4:||
